dist/img/sprites/hDialogs.svg

<svg width="32" height="32" viewBox="0 0 32 32" fill="none" xmlns="http://www.w3.org/2000/svg">
<g clip-path="url(#clip0_730_5303)">
<path fill-rule="evenodd" clip-rule="evenodd" d="M1.52 31.74L7.97 25.29H27.75C28.89 25.29 29.95 24.85 30.76 24.05C31.56 23.25 32 22.18 32 21.05V4.24999C32 3.10999 31.56 2.04999 30.76 1.24999C29.96 0.449993 28.89 0.00999345 27.75 0.00999345H4.25C3.11 -6.54929e-06 2.05 0.439993 1.24 1.23999C0.44 2.03999 0 3.10999 0 4.23999V31.11C0 31.47 0.22 31.79 0.55 31.93C0.88 32.07 1.27 31.99 1.52 31.74ZM1.78 4.24999C1.78 3.58999 2.04 2.96999 2.5 2.50999C2.97 2.03999 3.59 1.78999 4.24 1.78999H27.75C28.41 1.78999 29.03 2.04999 29.49 2.50999C29.96 2.97999 30.21 3.59999 30.21 4.24999V21.04C30.21 21.69 29.95 22.32 29.49 22.78C29.02 23.25 28.41 23.5 27.75 23.5H7.61C7.38 23.5 7.15 23.6 6.98 23.76L1.78 28.95V4.24999Z" fill="#4B8125"/>
</g>
<defs>
<clipPath id="clip0_730_5303">
<rect width="32" height="32" fill="white"/>
</clipPath>
</defs>
</svg>

<svg width="32" height="32" viewBox="0 0 32 32" fill="none" xmlns="http://www.w3.org/2000/svg"><g clip-path="url(#clip0_730_5303)"><path fill-rule="evenodd" clip-rule="evenodd" d="M1.52 31.74l6.45-6.45h19.78c1.14 0 2.2-.44 3.01-1.24.8-.8 1.24-1.87 1.24-3V4.25c0-1.14-.44-2.2-1.24-3-.8-.8-1.87-1.24-3.01-1.24H4.25C3.11 0 2.05.44 1.24 1.24c-.8.8-1.24 1.87-1.24 3v26.87a.894.894 0 001.52.63zm.26-27.49c0-.66.26-1.28.72-1.74.47-.47 1.09-.72 1.74-.72h23.51c.66 0 1.28.26 1.74.72.47.47.72 1.09.72 1.74v16.79c0 .65-.26 1.28-.72 1.74-.47.47-1.08.72-1.74.72H7.61c-.23 0-.46.1-.63.26l-5.2 5.19V4.25z" fill="#4B8125"/></g><defs><clipPath id="clip0_730_5303"><path fill="#fff" d="M0 0h32v32H0z"/></clipPath></defs></svg>
